X:1
T:Title
%%score 1 2
L:1/8
Q:1/4=90
M:4/4
K:G
V:1 treble nm="Strings 1, Treble"
V:2 bass nm="Strings 1, Bass"
V:1
 z4 z2 [GB][EA] | [DG]4- [DG][DA][GB][Gd] | [Fd]2 [Fc]4 [Ac][GB] | [FA]4- [FA][Ac][GB][FA] | %4
w: 1.~Have~ you~|walked~ * a bout~ Mount~|Zi on?~ 'Round~ her~|tow * ers~ great~ and~|
 [GB]6 [GB][EA] | [DG]4- [DG][DA][GB][Gd] | [Fd]2 [Fc]4 [Ac][GB] | [FA]4- [FA][Ac][GB][FA] | %8
w: tall?~ Have~ you~|seen~ * her~ might y~|bul warks,~ Have~ you~|seen~ * her~ shin ing~|
 [DG]6 [DG][DA] | [GB]4- [GB][EA][DG][DA] | [GB]2 [Gd]4 [Gd][Gd] | [Gd]4- [Gd][Gd][Fc][GB] | %12
w: walls?~ * *||||
 [FA]6 [DG][DA] | [GB]4- [GB][EA][DG][DA] | [GB]2 [Gd]4 [Gd][Gd] | [Fd]4- [Fd][Ac][GB][FA] | %16
w: ||||
 [DG]6 z2 |] %17
w: |
V:2
 z4 z2 [G,D][G,C] | [G,B,]4- [G,B,][G,C][G,D][G,B,] | [D,B,]2 [D,A,]4 [D,D][D,D] | %3
 [D,D]4- [D,D][D,D][D,D][D,D] | [G,D]6 [G,D][G,C] | [G,B,]4- [G,B,][G,C][G,D][G,B,] | %6
 [D,B,]2 [D,A,]4 [D,D][D,D] | [D,D]4- [D,D][D,E][D,D][D,C] | [G,,B,]6 [G,B,][G,C] | %9
 [G,D]4- [G,D][G,C][G,B,][G,C] | [G,D]2 [G,B,]4 [G,B,][G,B,] | [G,B,]4- [G,B,][B,D][A,D][G,D] | %12
 [D,D]6 [G,B,][G,C] | [G,D]4- [G,D][G,C][G,B,][G,C] | [G,D]2 [G,B,]4 [G,B,][G,B,] | %15
 [D,A,]4- [D,A,][D,E][D,D][D,C] | [G,,B,]6 z2 |] %17

